X: 1
T: Mimosas, The
M: 6/8
L: 1/8
R: jig
K: Dmaj
|:AG|~F3 AFA|dfe dfg|afa ~g3|fdf ecB|
AFA dAd|fec dfg|afa gec|edc d:|
|: fg|afa bgb|afd AB=c| BAG Bed| cBA afg|
a2^a bgb| afd AB=c| BAG Bed| cBA d:|
